X: 2
T: The Humours Of Whiskey
R: slip jig
M: 9/8
L: 1/8
K: Gmaj
|: GAB ~E3 ~E3 | GAB ~E3 AFD | GAB ~E3 ~E3 | FED AdB AFD :|||: GAB BdB BdB | ~G3 BdB AFD | GAB BdB ~B3 | cBA AdB AFD :||


Tune 1023	Setting 26374

